!! 00000] TT[WS
!!!OTL: Laicheng bainian
!!!ARE: Asia, China, Shanxi Lishi
!! Ethnic Group: Han
!! WII, 174 (2)
!!!SCT: J0663
!!!YEM: Copyright 1995, estate of Helmut Schaffrath.
**kern
*ICvox
*Ivox
*M2/4
*k[f#c#g#]
*A:
{4e
4ee
=1
8cc#
8b
8a
8f#
=2
8cc#
8b
8a
8f#
=3
8e
8c#
4e}
=4
{4e
4ee
=5
8cc#
8b
8a
8f#
=6
8cc#
8b
8a
8f#
=7
8e
8c#
4e}
=8
{8a
16b
16cc#
8.a
16b
=9
8f#
8c#
4e
=10
8.a
16cc#
8b
8cc#
=11
8f#
8e
4c#}
=12
{8.ee
16cc#
8.ee
16cc#
=13
4b
8b
8cc#}
=14
{8a
16b
16cc#
8ff#
8ee
=15
8cc#
8b
8a
8f#
=16
8e
8g#
8f#
8e
=17
8e
8cc#
8b
8cc#
=18
2e}
==
!!!AGN: Xiaodiao, Qingge
!!!ONB: ESAC (Essen Associative Code) Database: CHINA
!!!AMT: simple duple
!!!AIN: vox
!!!EED: Helmut Schaffrath
!!!EEV: 1.0
*-
